X:1
T:Looking for That Blessèd Hope
T:Looking for That Blessèd Hope
T:Thoro Harris
T:Thoro Harris, 1909
T:Public Domain Courtesy of the Cyber Hymnal™
T:Public Domain Courtesy of the Cyber Hymnal™
C:Thoro Harris
Z:Public Domain
Z:Courtesy of the Cyber Hymnal™
%%score ( 1 2 ) ( 3 4 )
L:1/8
Q:1/4=113
M:4/4
K:C
V:1 treble 
V:2 treble 
V:3 bass 
V:4 bass 
V:1
 !fermata![EG]2 | [CE][CE][CE][CE] [CE]2 [EG][EG] | [EG][EG] [DF]>[^CE] [DF]3 [DF] | %3
w: 1.~O|shout a- loud the tid- ings, Re-|peat the joy- ful strain; Let|
w: 2.~Signs|in the heav’n a- bove us, In|sun and moon and sky, Pro-|
w: 3.~We’ll|watch for His re- turn- ing With|lamps well trimmed and bright; He|
 [B,D][CD]D[CD] [B,D]2 [DF][FA] | [FA][EG] [EG]>[^D^F] [EG]3 [EG] | %5
w: all the wait- ing na- tions This|mes- sage hear a- gain; The|
w: claim to all the faith- ful Re-|demp- tion draw- eth nigh; The|
w: com- eth to the care- less As|thieves break thro’ at night; “Well|
 [CE][CE][CE][DE] [^CE]2 [CG][CG] | [EG][DF] [DF]>[^CE] [DF]4 | [FB][FB][FB][FB] [FA]2 [FB]2 | %8
w: spot- less Lamb of glo- ry, Who|once for man was slain,|Soon o’er all the earth shall|
w: hearts of men are quak- ing, And|fail- ing them for fear;|Je- sus’ com- ing draw- eth|
w: done, thou good and faith- ful,” O|may we hear the word,|“Share the joy of Christ thy|
 [Ec]6 z2 ||"^Refrain" [Ec][EG][^D^F][EG] [EA]2 [Ec]2 | [FA]6 z2 | [Fd][FG][FG][FA] [FB]2 [Fd]2 | %12
w: reign.||||
w: near.|Look- ing for that bless- èd|hope,|Look- ing for that bless- èd|
w: Lord.”||||
 [Ec]6 z [EG] | [FB]>[FB] [FB][Fc] [Fd][FB] z [FG] | [Ec]>[Ec] [Gc][Gd] [Ge][Ec] z G | %15
w: |||
w: hope; We|know the hour is near- ing, The|hour of His ap- pear- ing, We’re|
w: |||
 [FA][FB][Gc][Af] [Ge]2 [Fd]2 | [Ec]6 |] %17
w: ||
w: look- ing for that bless- èd|hope.|
w: ||
V:2
 x2 | x8 | x8 | x2 D x5 | x8 | x8 | x8 | x8 | x8 || x8 | x8 | x8 | x8 | x8 | x7 G | x8 | x6 |] %17
V:3
 !fermata![C,C]2 | [C,G,][C,E,][C,G,][C,A,] [C,G,]2 [C,G,][C,A,] | %2
w: ~|~ ~ ~ ~ ~ ~ ~|
 [G,B,][G,B,] [G,B,]>[G,B,] [G,B,]3 [G,B,] | [G,D][G,C][G,B,][G,A,] G,2 G,[G,B,] | %4
w: ~ ~ ~ ~ ~ ~|~ ~ ~ ~ ~ ~ ~|
 [C,C][C,G,] [C,A,]>[C,A,] [C,G,]3 [C,G,] | [C,G,][C,E,][C,G,][C,^G,] [A,,A,]2 [A,,E,][A,,A,] | %6
w: ~ ~ ~ ~ ~ ~|~ ~ ~ ~ ~ ~ ~|
 [D,A,][D,A,] [D,A,]>[D,A,] [D,A,]4 | [G,,G,][B,,G,][D,G,][G,A,] (B,A,) [D,G,]2 | [C,C]6 z2 || %9
w: ~ ~ ~ ~ ~|~ ~ ~ ~ ~ * ~|~|
 [C,C][C,_B,][C,A,][C,G,] [C,G,]2 [C,G,]2 | [D,G,][D,A,][D,B,][D,A,] G,2 z2 | %11
w: ~ ~ ~ ~ ~ ~|~ that joy- ful hope,|
 [G,B,][G,B,][G,B,][G,C] [G,D]2 [G,B,]2 | [C,C][C,G,][C,E,][C,G,] [C,C]2 z [C,C] | %13
w: ~ ~ ~ ~ ~ ~|~ that glo- rious hope; *|
 [G,D]>[G,B,] G,[G,A,] [G,B,]G, z [G,B,] | [C,C]>[C,C] [E,C][G,B,] CC z [E,C] | %15
w: ||
 [F,C][D,G,][E,C][F,C] [G,C]2 [G,,B,]2 | [C,C]6 |] %17
w: ||
V:4
 x2 | x8 | x8 | x4 G,2 G, x | x8 | x8 | x8 | x4 F,2 x2 | x8 || x8 | x4 G,2 x2 | x8 | x8 | %13
 x2 G, x G, x3 | x4 CC x2 | x8 | x6 |] %17

